X:1
T:My Heart Is Yearning Ever
T:Oskar Ahnfelt (1813-1882)
T:My Heart Is Yearning Ever
T:Public Domain
T:Public Domain
C:Oskar Ahnfelt (1813-1882)
Z:Public Domain
%%score ( 1 2 ) ( 3 4 )
L:1/8
M:4/4
K:F
V:1 treble 
V:2 treble 
V:3 bass 
V:4 bass 
V:1
 C2 | [CA]3 [CE] [CF]3 [FA] | [Fd]4 [^Fc]2 [GB]2 | [FA]3 C [EG]2 C2 | [CF]6 (F_E) | %5
w: 1.~My|is yearn- ing ev-|er To reach|a place of rest.|sa- lem, *|
w: 2.~With-|its ra- diant por-|tals None ev-|er sheds a tear;|ty bright *|
w: 3.~Their|èd Lord and Sav-|ior Doth rule|and gov- ern them|and joy, *|
w: 4.~Be-|the goal in glo-|ry, Now shin-|ing from a- far.|ty of *|
w: 5.~And|en I shall con-|quer In Je-|sus’ Name and might;|and faint, *|
 [Dd]3 [Dc] [DB]2 [DG]2 | [Cc]3 [CB] [CA]2 [Fc]2 | [Fd]2 [GB]2 | [FA]3 [EG] | [DF]4 [EG]2 [Fc]2 | %10
w: hap- py home, In|thee my heart shall|ne- ver|By sin|or grief be|
w: all de- light, No|grief nor wail or|mor- tals|Is where|the Lamb is|
w: out al- loy, For|sin can en- ter|nev- er|The new|Je- ru- sa-|
w: God of love, Where|no more earth- ly|wor- ry|My hap-|pi- ness shall|
w: as a saint I’ll|in the ha- ven|an- chor,|Sweet ha-|ven of de-|
 [G=B]2 [FA]2 (DC=B,)[B,D] | C6 C2 | [CA]3 [CE] [CF]3 [FA] | (D3 E) [Fc]2 [CB]2 | %14
w: pressed. My heart * * is|ing ev-|reach that ci- ty|bright. * * *|
w: near; With- in * * its|diant por-|ev- er sheds a|tear. * * *|
w: lem; Their bless- * * èd|and Sav-|rule and gov- ern|them. * * *|
w: mar! Be- hold * * the|in glo-|shin- ing from a-|far. * * *|
w: light. Yea, even * * I|con- quer|sus’ Name and might.||
 [CA]3 C [DG]2 (CB,) | [A,F]6 |] %16
w: ||
w: ||
w: ||
w: ||
w: ||
V:2
 C2 | x8 | x8 | x3 C x C2 x | x6 A2 | x8 | x8 | x4 | x4 | x8 | x4 F3 x | C6 C2 | x8 | d4 x4 | %14
w: heart|||Je- ru-|my||||||yearn-|er To|||
w: in|||God’s ci-|gives||||||ra-|tals None|||
w: bless-|||In peace|with-||||||Lord|ior Doth|||
w: hold|||O ci-|the||||||goal|ry, Now|||
w: ev-|||Tho’ weak|still||||||shall|In Je-|||
 x3 C x C2 x | x6 |] %16
w: ||
w: ||
w: ||
w: ||
w: ||
V:3
 [F,A,]2 | [F,C]3 [G,B,] A,3 [F,C] | [B,,B,]4 [A,,C]2 [G,,D]2 | [C,C]3 [C,A,] [C,B,]2 [C,B,]2 | %4
 [F,,A,]6 F,2 | [^F,A,]3 [F,A,] [G,B,]2 (G,=F,) | [E,G,]3 [E,G,] [F,A,]2 [F,A,]2 | B,2 [G,D]2 | %8
 C2 C,[^C,B,] | [D,A,]4 [C,C]2 [A,,C]2 | [G,,D]2 [G,,C]2 (=B,A,G,)[G,,F,] | [C,E,]6 (CB,) | %12
 [F,A,]3 [G,B,] [A,C]3 [F,C] | (B,,3 C,) [D,A,]2 [E,G,]2 | F,3 [A,,F,] [B,,F,]2 [C,E,]2 | %15
 [F,,F,]6 |] %16
V:4
 x2 | x4 A,3 x | x8 | x8 | x6 F,2 | x6 B,2 | x8 | B,2 x2 | ^C3 x | x8 | x4 G,,3 x | x6 C,2 | x8 | %13
 B,4 x4 | F,3 x5 | x6 |] %16

